contributed-vectors/xposed_installer.svg

<?xml version="1.0" encoding="UTF-8" standalone="no"?>
<svg
   xmlns:dc="http://purl.org/dc/elements/1.1/"
   xmlns:cc="http://creativecommons.org/ns#"
   xmlns:rdf="http://www.w3.org/1999/02/22-rdf-syntax-ns#"
   xmlns:svg="http://www.w3.org/2000/svg"
   xmlns="http://www.w3.org/2000/svg"
   xmlns:sodipodi="http://sodipodi.sourceforge.net/DTD/sodipodi-0.dtd"
   xmlns:inkscape="http://www.inkscape.org/namespaces/inkscape"
   viewBox="0 0 192 192"
   version="1.1"
   id="svg16"
   sodipodi:docname="xposed_installer.svg"
   inkscape:version="0.92.4 (5da689c313, 2019-01-14)">
  <metadata
     id="metadata20">
    <rdf:RDF>
      <cc:Work
         rdf:about="">
        <dc:format>image/svg+xml</dc:format>
        <dc:type
           rdf:resource="http://purl.org/dc/dcmitype/StillImage" />
        <dc:title></dc:title>
      </cc:Work>
    </rdf:RDF>
  </metadata>
  <sodipodi:namedview
     pagecolor="#ffffff"
     bordercolor="#666666"
     borderopacity="1"
     objecttolerance="10"
     gridtolerance="10"
     guidetolerance="10"
     inkscape:pageopacity="0"
     inkscape:pageshadow="2"
     inkscape:window-width="1920"
     inkscape:window-height="1017"
     id="namedview18"
     showgrid="true"
     inkscape:zoom="3.4766083"
     inkscape:cx="105.3139"
     inkscape:cy="103.02461"
     inkscape:window-x="-8"
     inkscape:window-y="-8"
     inkscape:window-maximized="1"
     inkscape:current-layer="svg16"
     inkscape:snap-global="true">
    <inkscape:grid
       type="xygrid"
       id="grid827"
       spacingx="4"
       spacingy="4" />
  </sodipodi:namedview>
  <defs
     id="defs4">
    <style
       id="style2">.a{fill:none;stroke:#b1b5bd;stroke-linecap:round;stroke-linejoin:round;isolation:isolate;opacity:0.63;}</style>
  </defs>
  <circle
     class="a"
     cx="96"
     cy="96"
     r="36.5"
     id="circle10" />
  <rect
     class="a"
     x="32"
     y="8"
     width="128"
     height="176"
     rx="10"
     id="rect12"
     style="stroke:none;fill:#56595b;opacity:1" />
  <rect
     style="opacity:1;vector-effect:none;fill:#b1b5bd;fill-opacity:1;fill-rule:evenodd;stroke:none;stroke-width:8;stroke-linecap:round;stroke-linejoin:round;stroke-miterlimit:4;stroke-dasharray:none;paint-order:stroke fill markers"
     id="rect818"
     width="104"
     height="152"
     x="44"
     y="20"
     ry="4" />
  <path
     style="color:#000000;font-style:normal;font-variant:normal;font-weight:normal;font-stretch:normal;font-size:medium;line-height:normal;font-family:sans-serif;font-variant-ligatures:normal;font-variant-position:normal;font-variant-caps:normal;font-variant-numeric:normal;font-variant-alternates:normal;font-feature-settings:normal;text-indent:0;text-align:start;text-decoration:none;text-decoration-line:none;text-decoration-style:solid;text-decoration-color:#000000;letter-spacing:normal;word-spacing:normal;text-transform:none;writing-mode:lr-tb;direction:ltr;text-orientation:mixed;dominant-baseline:auto;baseline-shift:baseline;text-anchor:start;white-space:normal;shape-padding:0;clip-rule:evenodd;display:inline;overflow:visible;visibility:visible;opacity:1;isolation:auto;mix-blend-mode:normal;color-interpolation:sRGB;color-interpolation-filters:linearRGB;solid-color:#000000;solid-opacity:1;vector-effect:none;fill:#56595b;fill-opacity:1;fill-rule:evenodd;stroke:none;stroke-width:16;stroke-linecap:butt;stroke-linejoin:miter;stroke-miterlimit:4;stroke-dasharray:none;stroke-dashoffset:0;stroke-opacity:1;color-rendering:auto;image-rendering:auto;shape-rendering:auto;text-rendering:auto;enable-background:accumulate"
     d="M 157.96484 40 C 148.1184 40 139.96484 48.153789 139.96484 58 C 139.96484 58.680095 140.07521 59.336079 140.15039 60 L 138.00586 60 C 128.1594 60 120.02856 68.15856 120.00586 77.982422 L 120.00586 77.990234 L 120.00586 78.314453 C 119.3615 78.243779 118.76642 78 118.10742 78 C 108.26111 78 100.10742 86.153574 100.10742 96 C 100.10742 105.84645 108.26121 114 118.10742 114 C 118.72529 114 119.37218 113.77439 120.00586 113.7168 L 120.00586 114 C 120.00586 123.84625 128.15961 132 138.00586 132 L 160 132 L 160 40.126953 C 159.33022 40.049419 158.65339 40 157.96484 40 z M 128.96289 110.41602 C 128.60889 110.70156 128.15383 111.08084 127.96289 111.11133 C 128.29882 110.88376 128.64251 110.67598 128.96289 110.41602 z "
     id="path6-6" />
  <path
     inkscape:connector-curvature="0"
     style="clip-rule:evenodd;fill:#9abeff;fill-rule:evenodd"
     d="m 165.49546,64.5798 c 1.537,-1.7585 2.469,-4.0603 2.469,-6.5798 0,-5.5228 -4.477,-10 -10,-10 -5.523,0 -10,4.4772 -10,10 0,2.5195 0.932,4.8213 2.469,6.5798 0.26,0.3795 0.531,0.8998 0.531,1.4202 0,1 -0.16251,2 -1,2 -3.98596,0 -11.95787,0 -11.95787,0 -5.523,0 -9.98724,4.477215 -10,10 v 11 c 0,2.145571 -2.21101,0.267169 -3.89681,-0.9996 -1.6716,-1.2561 -3.7496,-2.0004 -6.0015,-2.0004 -5.5228,0 -10,4.4771 -10,10 0,5.523 4.4772,10 10,10 2.5195,0 4.53123,-0.60601 6.00453,-1.89373 0.97683,-0.97683 3.89378,-1.48749 3.89378,-0.10627 v 10 c 0,5.523 4.477,10 10,10 h 35.95787 c 5.523,0 10,-4.477 10,-10 V 78 c 0,-5.5228 -4.477,-10 -10,-10 0,0 -5.33333,0 -8,0 -0.68497,0 -1,-1 -1,-2 0,-0.5204 0.271,-1.0407 0.531,-1.4202 z"
     id="path6"
     sodipodi:nodetypes="cssscsssssssssccssssssssc" />
  <path
     inkscape:connector-curvature="0"
     style="clip-rule:evenodd;fill:#ffffff;fill-rule:evenodd"
     d="m 171.15773,109 -9.405,-13.995 8.775,-13.005 h -7.83 l -4.635,7.29 -4.635,-7.29 h -7.83 l 8.775,13.005 -9.405,13.995 h 7.83 l 5.265,-8.325 5.265,8.325 z"
     id="path8" />
</svg>

<svg xmlns="http://www.w3.org/2000/svg" id="svg16" version="1.1" viewBox="0 0 192 192"><defs id="defs4"><style id="style2">.a{fill:none;stroke:#b1b5bd;stroke-linecap:round;stroke-linejoin:round;isolation:isolate;opacity:.63}</style></defs><circle id="circle10" cx="96" cy="96" r="36.5" class="a"/><rect id="rect12" width="128" height="176" x="32" y="8" class="a" rx="10" style="stroke:none;fill:#56595b;opacity:1"/><rect id="rect818" width="104" height="152" x="44" y="20" ry="4" style="opacity:1;vector-effect:none;fill:#b1b5bd;fill-opacity:1;fill-rule:evenodd;stroke:none;stroke-width:8;stroke-linecap:round;stroke-linejoin:round;stroke-miterlimit:4;stroke-dasharray:none;paint-order:stroke fill markers"/><path id="path6-6" d="M157.965 40c-9.847 0-18 8.154-18 18 0 .68.11 1.336.185 2h-2.144c-9.847 0-17.977 8.159-18 17.982v.332c-.644-.07-1.24-.314-1.899-.314-9.846 0-18 8.154-18 18s8.154 18 18 18c.618 0 1.265-.226 1.899-.283V114c0 9.846 8.154 18 18 18H160V40.127a17.659 17.659 0 0 0-2.035-.127zm-29.002 70.416c-.354.286-.81.665-1 .695.336-.227.68-.435 1-.695z" style="color:#000;font-style:normal;font-variant:normal;font-weight:400;font-stretch:normal;font-size:medium;line-height:normal;font-family:sans-serif;font-variant-ligatures:normal;font-variant-position:normal;font-variant-caps:normal;font-variant-numeric:normal;font-variant-alternates:normal;font-feature-settings:normal;text-indent:0;text-align:start;text-decoration:none;text-decoration-line:none;text-decoration-style:solid;text-decoration-color:#000;letter-spacing:normal;word-spacing:normal;text-transform:none;writing-mode:lr-tb;direction:ltr;text-orientation:mixed;dominant-baseline:auto;baseline-shift:baseline;text-anchor:start;white-space:normal;shape-padding:0;clip-rule:evenodd;display:inline;overflow:visible;visibility:visible;opacity:1;isolation:auto;mix-blend-mode:normal;color-interpolation:sRGB;color-interpolation-filters:linearRGB;solid-color:#000;solid-opacity:1;vector-effect:none;fill:#56595b;fill-opacity:1;fill-rule:evenodd;stroke:none;stroke-width:16;stroke-linecap:butt;stroke-linejoin:miter;stroke-miterlimit:4;stroke-dasharray:none;stroke-dashoffset:0;stroke-opacity:1;color-rendering:auto;image-rendering:auto;shape-rendering:auto;text-rendering:auto;enable-background:accumulate"/><path id="path6" d="M165.495 64.58a9.965 9.965 0 0 0 2.47-6.58c0-5.523-4.478-10-10-10-5.524 0-10 4.477-10 10 0 2.52.931 4.821 2.468 6.58.26.38.531.9.531 1.42 0 1-.162 2-1 2h-11.957c-5.523 0-9.988 4.477-10 10v11c0 2.146-2.211.267-3.897-1a9.955 9.955 0 0 0-6.002-2c-5.523 0-10 4.477-10 10s4.477 10 10 10c2.52 0 4.532-.606 6.005-1.894.977-.977 3.894-1.487 3.894-.106v10c0 5.523 4.477 10 10 10h35.957c5.523 0 10-4.477 10-10V78c0-5.523-4.477-10-10-10h-8c-.685 0-1-1-1-2 0-.52.271-1.04.531-1.42z" style="clip-rule:evenodd;fill:#9abeff;fill-rule:evenodd"/><path id="path8" d="m171.158 109-9.405-13.995L170.528 82h-7.83l-4.635 7.29-4.635-7.29h-7.83l8.775 13.005L144.968 109h7.83l5.265-8.325 5.265 8.325z" style="clip-rule:evenodd;fill:#fff;fill-rule:evenodd"/></svg>
